X: 41881
T: Vo Vel'basi
R: jig
M: 6/8
K: Aminor
e2Ace<d|c<BA4|a2egf<d|g<fe4|
a2egf<e|d<^de4|e2Ace<d|c<BA4|
a2egf<d|g<fe4|e2Ace<d|c<BA4:|

